!!!!SEGMENT: pl-kk--kk-i-280--002_anonim--jesu-corona-virginum.krn
!!!cenid: 17xx:2092
!!!COM: Anonim
!!!COM-rism: pe30004985
!!!CDT:
!!!CNT:
!!!OTL: Jesu corona virginum
!!!PDT:
!!!AGN: Sacred
!!!SMS-siglum: PL-Kk
!!!SMS-shelfmark: Kk.I.280
!!!NIFC-rismID: 1001147325
!!!URL-scan: http://repozytorium.nifc.pl/skany/pl-kk-nut--i-280
!!!ONB-nifc: UWAGA: utwory w zbiorze: 1. Salve pater salvatoris, 2. Jesu corona virginum
!!!SMS-variant:
!!!SMS-altvar:
**kern	**text	**text	**text	**text	**kern	**text	**text	**text	**text	**kern	**text	**text	**text	**text	**kern	**text	**text	**text	**text
*part4	*part4	*part4	*part4	*part4	*part3	*part3	*part3	*part3	*part3	*part2	*part2	*part2	*part2	*part2	*part1	*part1	*part1	*part1	*part1
*staff4	*staff4	*staff4	*staff4	*staff4	*staff3	*staff3	*staff3	*staff3	*staff3	*staff2	*staff2	*staff2	*staff2	*staff2	*staff1	*staff1	*staff1	*staff1	*staff1
*I"Baſso.	*	*	*	*	*I"Tenore	*	*	*	*	*I"Alto.	*	*	*	*	*I"Canto.	*	*	*	*
*I'B	*	*	*	*	*I'T	*	*	*	*	*I'A	*	*	*	*	*I'S	*	*	*	*
*clefF4	*	*	*	*	*clefC4	*	*	*	*	*clefC3	*	*	*	*	*clefC1	*	*	*	*
*k[b-]	*	*	*	*	*k[b-]	*	*	*	*	*k[b-]	*	*	*	*	*k[b-]	*	*	*	*
*F:	*	*	*	*	*F:	*	*	*	*	*F:	*	*	*	*	*F:	*	*	*	*
*M3/2	*	*	*	*	*M3/2	*	*	*	*	*M3/2	*	*	*	*	*M3/2	*	*	*	*
*>[AAAAB]	*	*	*	*	*>[AAAAB]	*	*	*	*	*>[AAAAB]	*	*	*	*	*>[AAAAB]	*	*	*	*
=1	=1	=1	=1	=1	=1	=1	=1	=1	=1	=1	=1	=1	=1	=1	=1	=1	=1	=1	=1
*>A	*	*	*	*	*>A	*	*	*	*	*>A	*	*	*	*	*>A	*	*	*	*
*2\right	*	*	*	*	*2\right	*	*	*	*	*2\right	*	*	*	*	*2\right	*	*	*	*
!LO:TX:t=P:problem:znaki [BB- B-]	!	!	!	!	!	!	!	!	!	!	!	!	!	!	!	!	!	!	!
!LO:TX:a:i:t=De Virginibus	!	!	!	!	!LO:TX:a:i:t=De Virginibus	!	!	!	!	!LO:TX:a:i:t=De Virginibus	!	!	!	!	!LO:TX:a:i:t=De Virginibus	!	!	!	!
2F\	Je-	Qui	Te	Vir-	2c\	Je-	Qui	Te	Vir-	2f\	Je-	Qui	Te	Vir-	2a\	Je-	Qui	Te	Vir-
2A\	-su	per-	de-	.	2c\	-su	per-	de-	.	2f\	-su	per-	de-	.	2a\	-su	per-	de-	-tus
2F\	Co-	-gis	-pre-	-tus	2c\	Co-	-gis	-pre-	-tus	2f\	Co-	-gis	-pre-	-tus	2a\	Co-	-gis	-pre-	ho-
=2	=2	=2	=2	=2	=2	=2	=2	=2	=2	=2	=2	=2	=2	=2	=2	=2	=2	=2	=2
(4c\	-ro-	in-	-ca-	ho-	1c\	-ro-	in-	-ca-	ho-	1e\	-ro-	in-	-ca-	ho-	1g\	-ro-	in-	-ca-	-nor
4d\	.	.	.	.	.	.	.	.	.	.	.	.	.	.	.	.	.	.	.
4c\	.	.	.	.	.	.	.	.	.	.	.	.	.	.	.	.	.	.	.
4B-X\)	.	.	.	.	.	.	.	.	.	.	.	.	.	.	.	.	.	.	.
2A\	-na	-ter	-mur	-nor	2c\	-na	-ter	-mur	-nor	2f\	-na	-ter	-mur,	-nor	2a\	-na	-ter	-mur	.
=3	=3	=3	=3	=3	=3	=3	=3	=3	=3	=3	=3	=3	=3	=3	=3	=3	=3	=3	=3
2B-\	Co-	in-	pre-	ho-	2d\	Co-	in-	pre-	ho-	2f\	Co-	in-	pre-	ho-	2g/	Co-	in-	pre-	ho-
2c\	-ro-	.	-ca-	-nor	2c\	-ro-	.	-ca-	-nor	2f\	-ro-	.	-ca-	-nor	2g/	-ro-	.	-ca-	-nor
2C/	-na	-ter	-mur	laus	2c\	-na	-ter	-mur	laus	2e\	-na	-ter	-mur	laus	2g/	-na	-ter	-mur	laus
=4	=4	=4	=4	=4	=4	=4	=4	=4	=4	=4	=4	=4	=4	=4	=4	=4	=4	=4	=4
2.F\	Vir-	li-	sup-	glo-	2.c\	Vir-	li-	sup-	glo-	2.f\	Vir-	li-	sup-	glo-	2.a\	Vir-	li-	sup-	glo-
4F\	-gi-	-li-	-pli-	-ri-	4c\	-gi-	-li-	-pli-	-ri-	4f\	-gi-	-li-	-pli-	-ri-	4a\	-gi-	-li-	-pli-	-ri-
2F\	-num	-a,	-ces,	-a,	2c\	-num	-a,	-ces	-a	2f\	-num	-a,	-ces,	-a	2a\	-num	-a	-ces	-a
=5	=5	=5	=5	=5	=5	=5	=5	=5	=5	=5	=5	=5	=5	=5	=5	=5	=5	=5	=5
2D/	Quem	se-	Nos-	DE-	2F/	Quem	Se-	nos-	DE-	2d\	Quem	Se-	nos-	DE-	2a\	Quem	Se-	Nos-	DE-
2D/	Ma-	-ptus	-tris	-O	2F/	Ma-	-ptus	-tris	-O	2d\	Ma-	-ptus	-tris	-O	2a\	Ma-	-ptus	-tris	-O
2E\	-ter	Cho-	ut	Pa-	2E/	-ter	cho-	ut	Pa-	2c#X/	-ter	cho-	ut	Pa-	2g/	-ter	cho-	ut	Pa-
=6	=6	=6	=6	=6	=6	=6	=6	=6	=6	=6	=6	=6	=6	=6	=6	=6	=6	=6	=6
(2F\	il-	-re-	ad-	-tri	2D/	il-	-re-	ad-	-tri	(2d\	il-	-re-	ad-	-tri	1a\	il-	-re-	ad-	-tri
2C#X/)	.	.	.	.	1A\	-la	-is	-das	cum	2e\)	.	.	.	.	.	.	.	.	.
2D/	-la	-is	-das	cum	.	.	.	.	.	2f\	-la	-is	-das	cum	2a\	-la	-is	-das	cum
=7	=7	=7	=7	=7	=7	=7	=7	=7	=7	=7	=7	=7	=7	=7	=7	=7	=7	=7	=7
2G\	con-	Vir-	sen-	Fi-	2B-X\	con-	Vir-	sen-	Fi-	(4e\	con-	Vir-	sen-	Fi-	4g/	con-	Vir-	sen-	Fi-
.	.	.	.	.	.	.	.	.	.	4d\)	.	.	.	.	4f/	.	.	.	.
2A\	.	.	.	.	2.A/	.	.	.	.	2.d\	.	.	.	.	2.e/	.	.	.	.
2AA/	-ci-	-gi-	-si-	-li-	.	.	.	.	.	.	.	.	.	.	.	.	.	.	.
.	.	.	.	.	4A/	-ci-	-gi-	-si-	-li-	4c#X/	-ci-	-gi-	-ſi-	-li-	4e/	-ci-	-gi-	-ſi-	-li-
=8	=8	=8	=8	=8	=8	=8	=8	=8	=8	=8	=8	=8	=8	=8	=8	=8	=8	=8	=8
1.D\	-pit,	-num,	-bus	-o	1.A\	-pit	-num	-bus	-o	1.d\	-pit	-num	-bus	-o	1.f#X/	-pit	-num	-bus	-o
=9	=9	=9	=9	=9	=9	=9	=9	=9	=9	=9	=9	=9	=9	=9	=9	=9	=9	=9	=9
!LO:LB:g=original	!	!	!	!	!	!	!	!	!	!	!	!	!	!	!	!	!	!	!
!LO:N:vis=0	!	!	!	!	!	!	!	!	!	!LO:SIC:v:t=custos e	!	!	!	!	!LO:TX:a:i:t=S.	!	!	!	!
0.r	.	.	.	.	1.r	.	.	.	.	1.r	.	.	.	.	2a\	Quae	Spon-	Nes-	San-
.	.	.	.	.	.	.	.	.	.	.	.	.	.	.	2gn/	so-	-sus	-ci-	-cto
.	.	.	.	.	.	.	.	.	.	.	.	.	.	.	2f/	-la	de-	-re	si-
=10	=10	=10	=10	=10	=10	=10	=10	=10	=10	=10	=10	=10	=10	=10	=10	=10	=10	=10	=10
!	!	!	!	!	!LO:SIC:v:t=custos A	!	!	!	!	!LO:LB:g=original	!	!	!	!	!LO:LB:g=original	!	!	!	!
.	.	.	.	.	1.r	.	.	.	.	2e\	Quae	Spon-	Nes-	San-	(2cc\	Vir-	-co-	pror-	-mul-
.	.	.	.	.	.	.	.	.	.	2d\	so-	-sus	-ci-	-cto	2bn\)	.	.	.	.
.	.	.	.	.	.	.	.	.	.	2cn/	-la	de-	-re	si-	2cc\	-go	-rus	-sùs	-Pa-
=11	=11	=11	=11	=11	=11	=11	=11	=11	=11	=11	=11	=11	=11	=11	=11	=11	=11	=11	=11
!LO:N:vis=1	!	!	!	!	!LO:LB:g=original	!	!	!	!	!	!	!	!	!	!	!	!	!	!
1.r	.	.	.	.	2A/	Quae	Spon-	Nes-	San-	(2f\	Vir-	-co-	pror-	-mul	1cc\	so-	Spon-	nes-	-ra-
.	.	.	.	.	2G/	so-	-sus	-ci-	-cto	2e\)	.	.	.	.	.	.	.	.	.
.	.	.	.	.	2F/	-la	de-	-re	si-	2f\	-go	-rus	-ſùs	Pa-	2cc\	-la	-s(us)	-ci-	-cli-
=12	=12	=12	=12	=12	=12	=12	=12	=12	=12	=12	=12	=12	=12	=12	=12	=12	=12	=12	=12
2E\	Quae	spon-	nes-	San-	2E/	Vir-	-co-	pror-	-mul	(2g\	so-	Spon-	nes-	-ra-	(2cc\	Vir-	de-	-re	-to,
2D/	so-	-sus	-ci-	-cto	2F/	.	.	.	.	(2f\)	-la	.	.	.	2bn\)	.	.	pror-	si-
2C/	-la	de-	-re	si-	2G/	-go	-rus	-sùs	si-	2e\)	.	-sus	-ci-	-cli-	2cc\	-go	.	-sus	-mul
=13	=13	=13	=13	=13	=13	=13	=13	=13	=13	=13	=13	=13	=13	=13	=13	=13	=13	=13	=13
*	*	*	*	*	*	*ij	*	*	*	*	*	*	*	*	*	*ij	*	*	*
1F\	Vir-	-co-	pror-	-mul	2F/	Vir-	de-	pror-	-mul	2c\	Vir-	de-	-re	-to	(2a\	Vir-	-co-	pror-	si-
.	.	.	.	.	1G/	-go	-co-	.	Pa-	2d\	.	-co-	pror-	si-	2bn\)	.	.	.	mul
*	*	*	*	*	*	*Xij	*	*	*	*	*	*	*	*	*	*	*	*	*
2E\	-go	-rus	-sus	Pa-	.	.	.	.	.	2g\	-go	-rus	-sùs	-mul	2cc\	-go	-rus	-sus	Pa-
*	*	*	*	*	*	*	*	*	*	*	*	*	*	*	*	*Xij	*	*	*
=14	=14	=14	=14	=14	=14	=14	=14	=14	=14	=14	=14	=14	=14	=14	=14	=14	=14	=14	=14
2F\	par-	glo-	o-	-ra-	2A/	par-	-rus	-sùs	-ra-	(4f\	par-	glo-	o-	Pa-	1cc\	par-	glo-	o-	-ra-
.	.	.	.	.	.	.	.	.	.	4e\)	.	.	.	.	.	.	.	.	.
2G\	.	.	.	.	2.G/	.	glo-	o-	.	2.d\	.	.	.	-ra-	.	.	.	.	.
2GG/	-tu-	-ri-	-mni-	-cli-	.	.	.	.	.	.	.	.	.	.	2bn\	-tu-	-ri-	-mni-	-cli-
.	.	.	.	.	4G/	-tu-	-ri-	-mni-	-cli-	4d\	-tu-	-ri-	-mni-	-cli-	.	.	.	.	.
=15	=15	=15	=15	=15	=15	=15	=15	=15	=15	=15	=15	=15	=15	=15	=15	=15	=15	=15	=15
1C/,	-rit,	-â.	-a	-to,	1G/,	-rit,	-â.	-a	-to,	1e\,	-rit,	-â.	-a	-to	1cc\,	-rit,	-â,	-a	-to
2C#X/	haec	Spon-	Cor-	in	2G/	haec	Spon-	Cor-	in	2e\	haec	Spon-	Cor-	in	2a\	haec	Spon-	cor-	in
=16	=16	=16	=16	=16	=16	=16	=16	=16	=16	=16	=16	=16	=16	=16	=16	=16	=16	=16	=16
1C#X/	vo-	-sis-	-rup-	sem-	1G/	vo-	-sis-	-rup-	sem-	1e\	vo-	-sis-	-rup-	sem-	1a\	Vo-	-sis-	-rup-	sem-
2C#/	-ta	-què	-ti-	-pi-	2G/	-ta	-que	-ti-	-pi-	2e\	-ta	-que	-ti-	-pi-	2a\	-ta	-que	-ti-	-pi-
=17	=17	=17	=17	=17	=17	=17	=17	=17	=17	=17	=17	=17	=17	=17	=17	=17	=17	=17	=17
2D\	cle-	red-	-o-	-ter-	2F/	cle-	red-	-o-	-ter-	(2f\	cle-	red-	-o-	-ter-	(2dd\	Cle-	red-	-o-	-ter-
2E\	.	.	.	.	2E/	.	.	.	.	2g\)	.	.	.	.	2cc#X\)	.	.	.	.
2F\	-mens	-dens	-nis	-na	2A/	-mens	-dens	-nis	-na	2f\	.	.	.	.	2dd\	-mens	-dens	-nis	-na
=18	=18	=18	=18	=18	=18	=18	=18	=18	=18	=18	=18	=18	=18	=18	=18	=18	=18	=18	=18
2G\	ac-	prae-	Vul-	sae-	(2B-X\	ac-	prae-	Vul-	sae-	2e,<\	-mens	-dens	-nis	-na	1dd\	ac-	prae-	Vul-	sae-
2A\	.	.	.	.	2.A\)	.	.	.	.	2.e\	ac-	prae-	Vul-	sae-	.	.	.	.	.
2AA/	-ci-	-mi-	-ne-	-cu-	.	.	.	.	.	.	.	.	.	.	2cc#X\	-ci-	-mi-	-ne-	-cu-
!	!	!	!	!	!	!	!	!	!	!LO:SIC:v:t=custos f#	!	!	!	!	!	!	!	!	!
.	.	.	.	.	4A\	-ci-	-mi-	-ne-	-cu-	4e\	-ci-	-mi-	-ne-	-cu-	.	.	.	.	.
=19	=19	=19	=19	=19	=19	=19	=19	=19	=19	=19	=19	=19	=19	=19	=19	=19	=19	=19	=19
!	!	!	!	!	!	!	!	!	!	!LO:LB:g=original	!	!	!	!	!	!	!	!	!
1D\,	-pe.	-a.	-ra;	-la.	1A\,	-pe	-a.	-ra;	-la,	1f#X\	-pe.	-a.	-ra.	-la.	1dd\	-pe.	-a	-ra	-la
!	!	!	!	!	!LO:SIC:v:t=custos G	!	!	!	!	!	!	!	!	!	!LO:SIC:v:t=custos b-	!	!	!	!
2F\	Quae	Spon-	nes-	San-	2A/	Quae	Spon-	Nes-	San-	2cn/	Quae	Spon-	Nes-	San-	2a\	Quae	Spon-	Nes-	San-
=20	=20	=20	=20	=20	=20	=20	=20	=20	=20	=20	=20	=20	=20	=20	=20	=20	=20	=20	=20
!	!	!	!	!	!LO:LB:g=original	!	!	!	!	!	!	!	!	!	!LO:LB:g=original	!	!	!	!
1F\	so-	-sus	-ci-	-cto	1G/	so-	-sus	-ci-	-cto	1d\	so-	-sus	-ci-	-cto	1b-\	so-	-sus	-ci-	-cto
!LO:SIC:v:t=custos F	!	!	!	!	!	!	!	!	!	!	!	!	!	!	!	!	!	!	!
2F\	-la	de-	-re	si-	2G/	-la	de-	-re	si-	2d\	-la	de-	-re	si-	2b-\	-la	de-	-re	si-
=21	=21	=21	=21	=21	=21	=21	=21	=21	=21	=21	=21	=21	=21	=21	=21	=21	=21	=21	=21
!LO:LB:g=original	!	!	!	!	!	!	!	!	!	!	!	!	!	!	!	!	!	!	!
1F\	Vir-	-co-	pror-	-mul	(2A\	Vir-	-co-	pror-	-mul	1f\	Vir-	-co-	pror-	-mul	(2cc\	Vir-	-co-	pror-	-mul-
.	.	.	.	.	2B-X\)	.	.	.	.	.	.	.	.	.	2dd\)	.	.	.	.
2F\	-go	-rus	-sùs	Pa-	2A\	-go	-rus	-sùs	Pa-	2f\	-go	-rus	-sùs	Pa-	2cc\	-go	-rus	-sùs	-Pa-
=22	=22	=22	=22	=22	=22	=22	=22	=22	=22	=22	=22	=22	=22	=22	=22	=22	=22	=22	=22
(2G\	par-	glo-	o-	-ra-	(2d\	par-	glo-	o-	-ra-	(2f\	par-	glo-	o-	-ra-	2b-X\	par-	glo-	o-	-ra-
2En\)	.	.	.	.	2.c\)	.	.	.	.	2g\)	.	.	.	.	2g/	.	.	.	.
2F\	-tu-	-ri-	-mni-	-cli-	.	.	.	.	.	2f\	-tu-	-ri-	-mni-	-cli-	2a\	-tu-	-ri-	-mni-	-cli-
.	.	.	.	.	4c\	-tu-	-ri-	-mni-	-cli-	.	.	.	.	.	.	.	.	.	.
=23	=23	=23	=23	=23	=23	=23	=23	=23	=23	=23	=23	=23	=23	=23	=23	=23	=23	=23	=23
1.C/	-rit,	-â	-a,	-to	1.c\	-rit	-â	-a	-to	1.e\	-rit,	-â	-a	-to	1.g\,	-rit,	-a	-a	-to
=24	=24	=24	=24	=24	=24	=24	=24	=24	=24	=24	=24	=24	=24	=24	=24	=24	=24	=24	=24
2A\	haec	Spon-	Cor-	in	2c\	haec	Spon-	Cor-	in	2f\	haec	Spon-	cor-	in	2cc\	haec	Spon-	Cor-	in
2B-\	Vo-	-sis-	-rup-	sem-	2.B-X\	vo-	-sis-	-rup-	sem-	2f\	Vo-	-sis-	-rup-	sae-	2dd\	Vo-	-sis-	-rup-	sem-
2G\	-ta	-que	-ti-	-pi-	.	.	.	.	.	2e\	-ta	-que	-ti-	-cu-	2b-X\	-ta	-que	-ti-	-pi-
.	.	.	.	.	4B-\	-ta	-que	-ti-	-pi-	.	.	.	.	.	.	.	.	.	.
=25	=25	=25	=25	=25	=25	=25	=25	=25	=25	=25	=25	=25	=25	=25	=25	=25	=25	=25	=25
1F\	cle-	red-	-o-	-ter-	4A/	cle-	red-	-o-	-ter-	1f\	Cle-	red-	-o-	-lo-	(4cc\	Cle-	red-	-o-	-ter-
.	.	.	.	.	4G/	.	.	.	.	.	.	.	.	.	4b-\	.	.	.	.
.	.	.	.	.	4F/	.	.	.	.	.	.	.	.	.	4a\	.	.	.	.
.	.	.	.	.	4G/	.	.	.	.	.	.	.	.	.	4b-\)	.	.	.	.
2F\	-mens	-dens	-nis	-na	2A/	-mens	-dens	-nis	-na	2f\	-mens	-dens	-nis	-rum	2cc\	-mens	-dens	-nis	-na
=26	=26	=26	=26	=26	=26	=26	=26	=26	=26	=26	=26	=26	=26	=26	=26	=26	=26	=26	=26
2B-\	ac-	prae-	Vul-	sae-	2d\	ac-	prae-	Vul-	sae-	1f\	ac-	prae-	Vul-	sae-	(4b-\	ac-	prae-	Vul-	sae-
.	.	.	.	.	.	.	.	.	.	.	.	.	.	.	4a\)	.	.	.	.
2c\	.	.	.	.	2.c\	.	.	.	.	.	.	.	.	.	2.g/	.	.	.	.
2C/	-ci-	-mi-	-ne-	-cu-	.	.	.	.	.	2e\	-ci-	-mi-	-ne-	-cu-	.	.	.	.	.
.	.	.	.	.	4c\	-ci-	-mi-	-ne-	-cu-	.	.	.	.	.	4g/	-ci-	-mi-	-ne-	-cu-
=27	=27	=27	=27	=27	=27	=27	=27	=27	=27	=27	=27	=27	=27	=27	=27	=27	=27	=27	=27
!LO:TX:b:i:t=Da Capo.	!	!	!	!	!LO:TX:b:i:t=Da Capo.	!	!	!	!	!LO:TX:b:i:t=Da Capo.	!	!	!	!	!LO:TX:b:i:t=Da Capo	!	!	!	!
!LO:N:vis=0	!	!	!	!	!LO:N:vis=0	!	!	!	!	!LO:N:vis=0	!	!	!	!	!LO:N:vis=0	!	!	!	!
1.F\;	-pe.	-a.	-ra	-la.	1.c\;	-pe.	-a.	-ra.	-la.	1.f\;	-pe	-a.	-ra	-la.	1.a\;	-pe.	-a.	-ra.	-la.
=28||	=28||	=28||	=28||	=28||	=28||	=28||	=28||	=28||	=28||	=28||	=28||	=28||	=28||	=28||	=28||	=28||	=28||	=28||	=28||
*>B	*	*	*	*	*>B	*	*	*	*	*>B	*	*	*	*	*>B	*	*	*	*
!LO:LB:g=original	!	!	!	!	!LO:LB:g=original	!	!	!	!	!LO:LB:g=original	!	!	!	!	!LO:LB:g=original	!	!	!	!
!LO:N:vis=0	!	!	!	!	!LO:N:vis=0	!	!	!	!	!LO:N:vis=0	!	!	!	!	!LO:N:vis=0	!	!	!	!
1.BB-/	A-	.	.	.	1.d\	A-	.	.	.	1.f\	A-	.	.	.	1.b-\	A-	.	.	.
=29-	=29-	=29-	=29-	=29-	=29-	=29-	=29-	=29-	=29-	=29-	=29-	=29-	=29-	=29-	=29-	=29-	=29-	=29-	=29-
!LO:N:vis=0	!	!	!	!	!LO:N:vis=0	!	!	!	!	!LO:N:vis=0	!	!	!	!	!LO:N:vis=0	!	!	!	!
1.F\;	-men	.	.	.	1.c\;	-men.	.	.	.	1.f\;	-men	.	.	.	1.a\;	-men.	.	.	.
==	==	==	==	==	==	==	==	==	==	==	==	==	==	==	==	==	==	==	==
*-	*-	*-	*-	*-	*-	*-	*-	*-	*-	*-	*-	*-	*-	*-	*-	*-	*-	*-	*-
!!!RDF**kern: > = above
!!!RDF**kern: < = below
!!!system-decoration: [(s1,s2,s3,s4)]
!!!EED: Andrzej Borzym
!!!EST: 2021-03-31
!!!ENC: Andrzej Borzym
!!!END: 2021-03-10
